Papirus/64x64/apps/journey-of-a-roach.svg

<?xml version="1.0" encoding="UTF-8" standalone="no"?>
<svg xmlns="http://www.w3.org/2000/svg" height="64" width="64" version="1">
 <path style="opacity:0.2" d="m 61.944327,37.418091 a 12.272294,12.315292 0 0 1 -2.235908,6.195745 c -0.03,0.427982 -0.056,0.819966 -0.092,1.283947 -0.185993,2.297905 -0.511979,4.651808 -0.73197,5.225784 -0.795967,2.097914 -7.973671,4.803802 -16.24933,6.129747 C 37.929313,57.007283 31.755568,57.201275 25.65182,56.785293 18.517918,56.297313 13.819712,55.355352 9.480891,53.545426 5.093072,51.717502 4.1777097,51.187523 4.0711141,48.049653 c -0.1237949,4.999794 0.2259907,5.33578 5.4097769,7.495691 4.338821,1.809925 9.037027,2.751886 16.170933,3.239866 6.103748,0.415983 12.277493,0.221991 16.983299,-0.531978 8.275659,-1.325945 15.453363,-4.031834 16.24933,-6.129747 0.219991,-0.573976 0.545977,-2.927879 0.73197,-5.225785 0.036,-0.46398 0.062,-0.855964 0.092,-1.283947 a 12.272294,12.315292 0 0 0 2.289906,-7.141705 12.272294,12.315292 0 0 0 -0.054,-1.053957 z m -59.8975294,0.016 a 12.272294,12.315292 0 0 0 -0.046798,1.037957 12.272294,12.315292 0 0 0 2.0897137,6.855717 c 0.0044,-0.06 0.1021958,-1.45994 0.1249949,-1.803925 A 12.272294,12.315292 0 0 1 2.0467976,37.434091 Z"/>
 <path style="fill:#7a6143" d="M 40.637206,6.0148281 C 31.513582,6.1592222 11.798395,7.5565645 8.194544,13.324327 7.56417,14.986458 6.4394164,20.828817 5.8890391,25.294633 5.7606444,26.32459 5.6404494,27.638536 5.5162545,28.850486 a 12.272294,12.315292 0 0 0 -3.515455,8.623644 12.272294,12.315292 0 0 0 2.2159086,7.04971 c -0.023319,0.352005 -0.1304986,1.841424 -0.1304986,1.841424 -0.1666591,5.715964 -0.032439,5.918555 5.3957774,8.180862 4.3388211,1.808286 9.0342271,2.748687 16.1685331,3.236467 6.102748,0.417322 12.277693,0.22483 16.983499,-0.529179 8.274859,-1.325865 15.454763,-4.034233 16.25113,-6.130947 0.218691,-0.575836 0.547997,-2.927279 0.73239,-5.224984 0.03722,-0.463721 0.06002,-0.856805 0.09056,-1.285527 A 12.272294,12.315292 0 0 0 62,37.47425 12.272294,12.315292 0 0 0 58.820132,29.224591 C 58.460146,26.894687 58.026164,24.242796 57.446188,20.786939 56.42423,15.42096 55.206281,10.282172 54.7403,9.3664099 53.376356,6.6923202 51.704425,6.1781414 43.82075,6.0201479 43.026783,5.9987488 41.940828,5.994149 40.638882,6.0149481 Z"/>
 <path style="fill:#372c1e" d="m 36.959357,53.24948 c 1.842264,-0.825506 2.628692,-1.95952 1.548517,-2.232908 -0.363325,-0.09194 -1.313466,0.195112 -2.111513,0.637873 -1.784307,0.99008 -4.255825,1.061117 -6.435135,0.184933 -2.735487,-1.099795 -4.049633,-0.49604 -1.865623,0.857044 2.4165,1.497079 6.226343,1.734769 8.863634,0.552998 z"/>
 <circle style="opacity:0.2" cy="38" cx="15" r="11"/>
 <circle style="fill:#37a643" cy="37" cx="15" r="11"/>
 <circle style="fill:#372c1e" cy="36" cx="14" r="2"/>
 <circle style="opacity:0.2" cy="38" cx="48.999" r="11"/>
 <circle style="fill:#37a643" cy="37" cx="48.999" r="11"/>
 <circle style="fill:#372c1e" cy="36" cx="49.999" r="2"/>
 <path style="fill:#372c1e" d="m 51.886742,12.131576 c 0.09116,0.206291 -5.885158,2.640691 -10.955948,4.897398 -5.070791,2.256507 -7.315499,3.480656 -7.406695,3.274265 -0.05278,-0.119395 3.071673,-2.103713 5.184786,-3.126071 4.083032,-1.762668 8.196262,-3.65565 13.177857,-5.045592 z"/>
 <path style="fill:#372c1e" d="m 47.590919,22.616743 c -0.217991,0.058 -2.709888,-2.329904 -5.08779,-5.514172 -2.377902,-3.183069 -3.739846,-5.955955 -3.523855,-6.013352 0.217351,-0.05725 1.739268,2.476898 4.11703,5.660166 2.377902,3.183269 4.711006,5.810161 4.493615,5.867358 z"/>
 <path style="fill:#ffffff;fill-opacity:1;opacity:0.1" d="M 40.636719 6.015625 C 31.513095 6.1600191 11.799164 7.556456 8.1953125 13.324219 C 7.5649385 14.98635 6.4390492 20.829106 5.8886719 25.294922 C 5.7602772 26.324879 5.6398199 27.637659 5.515625 28.849609 A 12.272294 12.315292 0 0 0 2 37.474609 A 12.272294 12.315292 0 0 0 2.0214844 37.892578 A 12.272294 12.315292 0 0 1 5.515625 29.849609 C 5.6398199 28.637659 5.7602772 27.324879 5.8886719 26.294922 C 6.4390492 21.829106 7.5649385 15.98635 8.1953125 14.324219 C 11.799164 8.556456 31.513095 7.1600191 40.636719 7.015625 L 40.638672 7.015625 C 41.940618 6.9948259 43.026346 6.9981321 43.820312 7.0195312 C 49.594881 7.135257 52.031577 7.4471425 53.460938 8.6542969 C 54.158689 9.0554803 54.644941 9.58675 55.068359 10.294922 C 54.940509 9.876715 54.824505 9.532799 54.740234 9.3671875 C 53.37629 6.6930978 51.703989 6.1775248 43.820312 6.0195312 C 43.026346 5.9981321 41.940618 5.9948259 40.638672 6.015625 L 40.636719 6.015625 z M 59.300781 29.810547 C 59.337519 30.045325 59.400296 30.408568 59.435547 30.636719 A 12.272294 12.315292 0 0 1 61.230469 33.246094 A 12.272294 12.315292 0 0 0 59.300781 29.810547 z M 2.6367188 39.511719 A 12.272294 12.315292 0 0 0 2.6171875 39.886719 A 12.272294 12.315292 0 0 0 2.7578125 41.654297 A 12.272294 12.315292 0 0 0 3.3886719 43.130859 A 12.272294 12.315292 0 0 1 2.6367188 39.511719 z M 4.1894531 44.898438 C 4.1499925 45.460918 4.0859375 46.365234 4.0859375 46.365234 C 4.0594399 47.274034 4.0526515 48.008115 4.0625 48.667969 C 4.0688112 48.251827 4.0715408 47.859004 4.0859375 47.365234 C 4.0859375 47.365234 4.1499925 46.460918 4.1894531 45.898438 A 12.272294 12.315292 0 0 0 4.7695312 46.833984 C 4.7982524 46.4258 4.8206565 46.107252 4.8320312 45.935547 A 12.272294 12.315292 0 0 1 4.1894531 44.898438 z M 4.6796875 50.423828 C 4.6767436 50.880169 4.6758881 51.358016 4.6953125 51.728516 C 4.7390005 51.795318 4.7767435 51.866126 4.8261719 51.929688 C 4.7391927 51.504461 4.6979848 51.001936 4.6796875 50.423828 z"/>
</svg>

<?xml version="1.0" encoding="UTF-8" standalone="no"?>
<svg xmlns="http://www.w3.org/2000/svg" height="64" width="64" version="1">
 <path style="fill:#7a6143" d="m40.637 6.0148c-9.123.1444-28.839 1.5418-32.442 7.3092-.6308 1.662-1.7556 7.505-2.306 11.971-.1284 1.03-.2486 2.344-.3727 3.555a12.272 12.315 0 0 0 -3.5155 8.6236 12.272 12.315 0 0 0 2.2159 7.0497c-.023319 0.352-.13050 1.8414-.13050 1.8414-.16666 5.716-.032439 5.9186 5.3958 8.1809 4.3388 1.8083 9.0342 2.7487 16.169 3.2365 6.1027.41732 12.278.22483 16.983-.52918 8.2749-1.3259 15.455-4.0342 16.251-6.1309.21869-.57584 0.548-2.9273.73239-5.225.03722-.46372.06002-.85680.09056-1.2855a12.272 12.315 0 0 0 2.292 -7.137 12.272 12.315 0 0 0 -3.18 -8.249c-.360-2.33-.794-4.982-1.374-8.438-1.022-5.366-2.24-10.505-2.706-11.421-1.364-2.6737-3.036-3.1879-10.919-3.3459-.794-.0214-1.88-.0260-3.182-.0052z"/>
 <path style="fill:#372c1e" d="m36.959 53.249c1.8423-.82551 2.6287-1.9595 1.5485-2.2329-.36332-.09194-1.3135.19511-2.1115.63787-1.7843.99008-4.2558 1.0611-6.4351.18493-2.7355-1.0998-4.0496-.49604-1.8656.85704 2.4165 1.4971 6.2263 1.7348 8.8636 0.553z"/>
 <circle style="opacity:.2" cx="15" r="11" cy="38"/>
 <circle style="fill:#37a643" cx="15" r="11" cy="37"/>
 <circle style="fill:#372c1e" cx="14" r="2" cy="36"/>
 <circle style="opacity:.2" cx="48.999" r="11" cy="38"/>
 <circle style="fill:#37a643" cx="48.999" r="11" cy="37"/>
 <circle style="fill:#372c1e" cx="49.999" r="2" cy="36"/>
 <path style="fill:#372c1e" d="m51.887 12.132c.09116.20629-5.8852 2.6407-10.956 4.8974-5.0708 2.2565-7.3155 3.4807-7.4067 3.2743-.05278-.11940 3.0717-2.1037 5.1848-3.1261 4.083-1.7627 8.1963-3.6556 13.178-5.0456z"/>
 <path style="fill:#372c1e" d="m47.591 22.617c-.21799.058-2.7099-2.3299-5.0878-5.5142-2.3779-3.1831-3.7398-5.956-3.5239-6.0134.21735-.05725 1.7393 2.4769 4.117 5.6602 2.3779 3.1833 4.711 5.8102 4.4936 5.8674z"/>
 <path style="opacity:.1;fill:#ffffff" d="m40.637 6.0156c-9.124.1444-28.838 1.5409-32.442 7.3084-.6301 1.662-1.756 7.505-2.3063 11.971-.1284 1.03-.2489 2.343-.3731 3.555a12.272 12.315 0 0 0 -3.5156 8.625 12.272 12.315 0 0 0 .0215 .439 12.272 12.315 0 0 1 3.4941 -8.062c.1242-1.212.2447-2.527.3731-3.557.5503-4.466 1.6762-10.309 2.3066-11.971 3.6037-5.7675 23.318-7.164 32.442-7.3084h.002c1.302-.0208 2.387-.0175 3.181.0039 7.884.1580 9.556.6736 10.92 3.3475.466.916 1.683 6.054 2.705 11.42.580 3.456 1.015 6.108 1.375 8.438a12.272 12.315 0 0 1 3.157 7.785 12.272 12.315 0 0 0 .023 -.535 12.272 12.315 0 0 0 -3.18 -8.25c-.360-2.33-.795-4.982-1.375-8.438-1.022-5.366-2.239-10.504-2.705-11.42-1.364-2.6739-3.036-3.1895-10.92-3.3475-.794-.0214-1.879-.0247-3.181-.0039h-.002zm-36.485 39.416c-.0302.423-.0664.933-.0664.933-.0262.901-.0355 1.627-.0273 2.283.0068-.408.0133-0.8.0273-1.283 0 0 .1076-1.49.1309-1.842a12.272 12.315 0 0 1 -.0645 -.091z"/>
 <path style="opacity:.2" d="m2.0215 37.914a12.272 12.315 0 0 0 -.0215 .560 12.272 12.315 0 0 0 2.1523 6.957c.029375-.41175.052954-.73463.064453-.90820a12.272 12.315 0 0 1 -2.1953 -6.609zm59.955.09375a12.272 12.315 0 0 1 -2.2676 6.6035c-.03054.42872-.05458.82339-.0918 1.2871-.18439 2.2977-.51373 4.6488-.73242 5.2246-.79637 2.0967-7.9751 4.805-16.25 6.1309-4.705.753-10.881.945-16.984.528-7.134-.488-11.829-1.428-16.168-3.236-4.5727-1.906-5.3796-2.388-5.4234-5.899-.073518 4.4307.45378 4.8271 5.4238 6.8984 4.3388 1.8083 9.0337 2.7485 16.168 3.2363 6.1027.41732 12.279.22471 16.984-.52930 8.2749-1.3259 15.454-4.0341 16.25-6.1309.21869-.57584.54803-2.9269.73242-5.2246.03722-.46372.06126-.85839.0918-1.2871a12.272 12.315 0 0 0 2.291 -7.137 12.272 12.315 0 0 0 -.023 -.467z"/>
</svg>
